!!!COM: Alzedo, Jose Bernardo
!!!CDT: 1788-1878
!!!OTL: National Anthem, Peru
!!!ENC: Davis, Matthew J.
!!Vocal Line Only
**kern
*clefG2
*k[b-]
*X:
*M4/4
=1-
1r
=2
2r
4r
8.cc
16cc
==3
!(Coda Symbol)
2ff
4..cc
16cc#
=4
2dd
4..a
16cc
=5
4b-
8.a
16a
4g
8.f
16f
=6
4cc
2cc
8.cc
16cc
=7
2ff
4..cc
16cc#
=8
2dd
4..a
16cc
=9
4b-
8.a
16a
4g
8.f
16f
=10
[2cc
8cc]
8r
8.g
16a
=11
4b-
8.b-
16b-
8b-
8dd
8cc
8b-
=12
4b-
2a
8.g
16a
=13
4b-
8.b-
16b-
8b-
8dd
8cc
8b-
=14
4b-
2a
8.cc
16dd
=15
4ee-
8.ee-
16ee-
8ee-
8gg
8ff
8ee-
=16
4ee-
4.dd
8ff
8een
8dd
=17
4cc
8.a
16cc
8cc
8b-
8a
8g
=18
[2f
8f]
8r
8.cc
16dd
=19
4ee-
8.ee-
16ee-
8ee-
8gg
8ff
8ee-
=20
4ee-
4.dd
8ff
8een
8dd
=21
4cc
8.a
16cc
8cc
8b-
8a
8g
=22
8f
8r
4r
2r
==23
1r
=24
1r
=25
2r
4r
==26
!Verse
8.a
16g
=27
4f
8.f
16f
8f
8g
8a
8f
=28
4.g
8e
8c
8r
8.c
16c
=29
4cc
8.cc
16cc
8cc
8b-
8a
8g
=30
[2f
8f]
8r
8.cc
8b-
=31
4a-
8.a-
16a-
4b-
8.b-
16b-
=32
4.e-
8cc
8a-
8r
8.cc
16cc
=33
8cc
4bn
8r
4r
8.b-
16b-
=34
8cc
4b-
8r
4r
8.g
16g
=35
4a-
8.g
16f
4a-
8.g
16f
=36
[2cc
8cc]
8r
8.e-
16e-
=37
4a-
8.a-
16a-
8a-
8b-
8.a-
16g-
=38
8g-
4.f
4r
8.f
16f
=39
4b-
8.b-
16b-
8b-
8cc
8.b-
16a-
=40
8a-
4.g
4r
8.e-
16e-
=41
4dd-
8.dd-
16dd-
8dd-
8ff
8.ee-
16dd-
=42
2dd-
8cc
8r
8.a-
16a-
=43
8a-
4g-
8r
4r
8.a-
16a-
=44
8g-
4f
8r
4r
8.dd-
16dd-
=45
4cc
8.cc
16cc
4b-
8.b-
16b-
=46
[2ee-
8ee-]
8dd-
8cc
8b-
=47
4a-
8.g
16a-
8cc
8b-
8f
8g
=48
4a-
8r
8en
8f
8g
8.a-
16b-
=49
[2cc
8cc]
8r
!D. Coda Symbol (measure 3) al Fine
8.cc
16cc
==
*-
